img/svgicons/load.svg

<svg width="30px" height="30" viewBox="0 0 30 30" fill="none" xmlns="http://www.w3.org/2000/svg">
<g clip-path="url(#clip0_42_1)">
<path d="M41.8104 8.96675C33.4989 0.65683 24.0225 -1.99564 15.1173 1.50584L13.9694 1.95797L14.6406 2.99452C14.9503 3.47311 15.2601 3.91512 15.5702 4.34001C13.2519 5.51158 11.0212 7.15901 8.92285 9.25663C4.48599 13.6935 1.35416 21.2521 0.327721 29.997C-0.382768 36.0478 0.0853138 41.4629 1.50551 44.9005C1.77204 45.8313 2.18799 46.6013 2.76813 47.1674C2.80354 47.2017 2.84789 47.2157 2.88641 47.2441C2.93466 47.3005 2.98213 47.3561 3.03155 47.4094C3.04361 47.4227 3.05295 47.4378 3.06462 47.4511C3.07396 47.4608 3.0759 47.4732 3.08602 47.4834C3.09108 47.4884 3.0973 47.4935 3.10314 47.4985C3.10625 47.5016 3.10742 47.5048 3.11053 47.5075C3.11326 47.5106 3.11754 47.5118 3.12026 47.5137C3.12532 47.5188 3.13155 47.5238 3.13738 47.5289C3.15061 47.5417 3.16267 47.5592 3.1759 47.5725C3.25956 47.6592 3.36889 47.7339 3.45955 47.8164C3.47784 47.8308 3.49379 47.8479 3.51208 47.862C5.72448 49.8483 9.8275 50.9654 15.1877 50.9988C15.2667 51 15.3453 51 15.4242 51C23.8894 51 35.1685 48.1818 41.5088 41.8415C43.6668 39.6835 45.3504 37.3762 46.5313 34.9669C46.9764 35.2615 47.4398 35.5552 47.9344 35.8482L48.9698 36.4618L49.3939 35.3342C52.702 26.529 50.0094 17.1642 41.8104 8.96675V8.96675ZM40.0805 40.4139C34.0915 46.4032 23.2381 49.0195 15.1997 48.9802C13.834 48.972 12.5535 48.8771 11.3644 48.7199C16.8962 47.6234 23.7626 44.0578 26.931 38.8851C27.2228 38.4096 27.0734 37.7879 26.5979 37.4972C26.1205 37.2066 25.5011 37.356 25.2104 37.8303C22.1692 42.794 14.8344 46.3803 9.50027 46.9775C7.18476 47.234 5.40153 46.9172 4.56964 46.1056C4.55564 46.0916 4.54318 46.0733 4.53034 46.0593C3.95176 44.8266 7.31316 37.4898 12.1368 33.9109C12.5835 33.579 12.6776 32.9471 12.3453 32.5001C12.0123 32.0518 11.3808 31.9588 10.9345 32.2911C7.63611 34.7385 4.55758 39.2505 3.20197 42.6951C3.17668 42.1014 3.19614 41.4555 3.27473 40.7543C3.87316 35.4191 7.45829 28.083 12.422 25.043C12.8975 24.7524 13.0469 24.1306 12.7551 23.6551C12.4644 23.18 11.8438 23.0314 11.3675 23.3224C6.83652 26.0971 3.53932 31.7086 2.05258 36.7766C1.97788 34.7397 2.06464 32.5191 2.33312 30.2332C3.29185 22.0536 6.28945 14.7452 10.3501 10.6846C12.406 8.62863 14.5873 7.04384 16.8409 5.96293C20.0304 9.68814 23.0552 10.8924 24.9933 11.2546C24.7742 11.5616 24.5875 11.8632 24.3937 12.1675C24.2917 12.327 24.1738 12.4881 24.0789 12.6468C23.9528 12.8565 23.8521 13.0624 23.7369 13.2713C23.5995 13.52 23.4501 13.7709 23.328 14.0164C23.2715 14.1304 23.2303 14.2406 23.1778 14.3534C23.0202 14.6884 22.8626 15.0226 22.7326 15.3506C22.7175 15.3892 22.7073 15.4254 22.6933 15.4639C20.493 21.103 22.1311 25.5994 22.591 26.6601L22.7498 27.0266L23.1163 27.1854C24.1011 27.6111 28.0489 29.0616 33.1258 27.5013C33.1277 27.5013 33.1285 27.5002 33.1304 27.5002C33.497 27.3869 33.8713 27.2508 34.2491 27.1052C34.3075 27.0823 34.365 27.0671 34.4234 27.0438C34.7102 26.9298 35.0039 26.7885 35.2965 26.6543C35.451 26.5827 35.6024 26.5251 35.7588 26.4473C35.988 26.3333 36.223 26.1928 36.456 26.066C36.6802 25.9426 36.9012 25.8337 37.1272 25.6975C37.2907 25.5994 37.4584 25.4776 37.6229 25.3714C37.9206 25.1804 38.2175 24.9979 38.519 24.7831C38.9109 26.8924 40.3116 30.2869 44.8648 33.7802C43.7769 36.0941 42.1719 38.3229 40.0805 40.4139V40.4139ZM47.9009 33.4568C47.6001 33.2631 47.3356 33.0701 47.0589 32.8775L46.7076 32.6242C39.8828 27.6936 40.3781 23.2042 40.4116 22.959L40.868 20.2428L40.8509 20.2571L38.7603 22.0334C32.099 27.6916 25.9614 26.0807 24.2937 25.4792C24.1809 25.1664 24.0322 24.696 23.903 24.0956C23.7307 23.294 23.5921 22.2594 23.6174 21.0532C23.6739 18.3401 24.5559 14.76 27.7395 11.0134L29.513 8.92745L26.896 9.3504L26.8139 9.36246C26.8018 9.36441 26.7718 9.3683 26.7302 9.37141C26.717 9.37258 26.6971 9.37336 26.68 9.37452C26.6567 9.37647 26.6294 9.37764 26.6003 9.37958C25.7049 9.41382 22.0432 9.21188 17.923 4.08554L17.6343 3.72757C17.4405 3.47622 17.2468 3.23303 17.0518 2.95833C24.8166 0.457223 33.0515 3.06533 40.3812 10.3959C47.6204 17.6308 50.2604 25.773 47.9009 33.4568V33.4568Z" fill="white"/>
</g>
<defs>
<clipPath id="clip0_42_1">
<rect width="30" height="30" fill="white"/>
</clipPath>
</defs>
</svg>

<svg width="30" height="30" fill="none" xmlns="http://www.w3.org/2000/svg"><g clip-path="url(#a)"><path d="M41.81 8.967C33.5.657 24.022-1.996 15.117 1.506l-1.148.452.672 1.037c.31.478.62.92.93 1.345-2.32 1.172-4.55 2.819-6.648 4.917-4.437 4.437-7.569 11.995-8.595 20.74-.71 6.05-.243 11.466 1.178 14.904.266.93.682 1.7 1.262 2.266.036.035.08.049.118.077.049.056.096.112.146.165.012.014.021.029.033.042.009.01.01.022.021.032l.017.016c.003.003.004.006.008.008.002.004.007.005.01.007l.016.015c.014.013.026.03.039.043.084.087.193.162.284.244.018.015.034.032.052.046 2.212 1.986 6.316 3.103 11.676 3.137l.236.001c8.465 0 19.745-2.818 26.085-9.158 2.158-2.158 3.841-4.466 5.022-6.875.445.294.909.588 1.403.881l1.036.614.424-1.128c3.308-8.805.615-18.17-7.584-26.367Zm-1.73 31.447c-5.988 5.99-16.842 8.605-24.88 8.566a30.666 30.666 0 0 1-3.836-.26c5.532-1.097 12.399-4.662 15.567-9.835a1.008 1.008 0 1 0-1.72-1.055c-3.042 4.964-10.377 8.55-15.71 9.148-2.316.256-4.1-.06-4.931-.872-.014-.014-.027-.033-.04-.047-.578-1.232 2.783-8.57 7.607-12.148a1.009 1.009 0 0 0-1.203-1.62c-3.298 2.448-6.376 6.96-7.732 10.404-.025-.594-.006-1.24.073-1.94.598-5.336 4.183-12.672 9.147-15.712a1.008 1.008 0 1 0-1.055-1.72c-4.53 2.774-7.828 8.386-9.314 13.454a43.064 43.064 0 0 1 .28-6.544c.959-8.18 3.956-15.488 8.017-19.548 2.056-2.056 4.237-3.641 6.49-4.722 3.19 3.725 6.215 4.93 8.153 5.292-.219.307-.405.608-.6.912-.101.16-.22.321-.314.48-.126.21-.227.415-.342.624-.137.249-.287.5-.409.745-.056.114-.098.225-.15.337-.158.335-.315.67-.445.998-.015.038-.026.074-.04.113-2.2 5.639-.562 10.135-.102 11.196l.159.367.366.158c.985.426 4.933 1.877 10.01.316h.004c.367-.114.741-.25 1.12-.396.057-.023.115-.038.173-.061.287-.114.58-.256.873-.39.155-.071.306-.129.463-.207.229-.114.464-.254.697-.381.224-.123.445-.232.671-.368.164-.099.331-.22.496-.327.298-.19.595-.373.896-.588.392 2.11 1.793 5.504 6.346 8.997-1.088 2.314-2.693 4.543-4.785 6.634Zm7.82-6.957c-.3-.194-.564-.387-.841-.58l-.351-.253c-6.825-4.93-6.33-9.42-6.296-9.665l.456-2.716-.017.014-2.09 1.776c-6.662 5.659-12.8 4.048-14.467 3.446a10.82 10.82 0 0 1-.391-1.383 13.197 13.197 0 0 1-.286-3.043c.057-2.713.939-6.293 4.122-10.04l1.774-2.086-2.617.423-.082.012a1.11 1.11 0 0 1-.084.01l-.05.003-.08.005c-.895.034-4.557-.168-8.677-5.294l-.289-.358c-.194-.252-.387-.495-.582-.77 7.765-2.5 16 .107 23.33 7.438 7.238 7.235 9.878 15.377 7.519 23.06Z" fill="#fff"/></g><defs><clipPath id="a"><path fill="#fff" d="M0 0h30v30H0z"/></clipPath></defs></svg>
